elementary-icon-theme/elementary/panel/22/banshee-panel.svg

<?xml version="1.0" encoding="UTF-8" standalone="no"?>
<!-- Created with Inkscape (http://www.inkscape.org/) -->

<svg
   xmlns:dc="http://purl.org/dc/elements/1.1/"
   xmlns:cc="http://creativecommons.org/ns#"
   xmlns:rdf="http://www.w3.org/1999/02/22-rdf-syntax-ns#"
   xmlns:svg="http://www.w3.org/2000/svg"
   xmlns="http://www.w3.org/2000/svg"
   xmlns:xlink="http://www.w3.org/1999/xlink"
   xmlns:sodipodi="http://sodipodi.sourceforge.net/DTD/sodipodi-0.dtd"
   xmlns:inkscape="http://www.inkscape.org/namespaces/inkscape"
   version="1.0"
   width="19"
   height="22"
   id="svg3215"
   inkscape:version="0.48.0 r9654"
   sodipodi:docname="banshee-panel.svg">
  <metadata
     id="metadata13">
    <rdf:RDF>
      <cc:Work
         rdf:about="">
        <dc:format>image/svg+xml</dc:format>
        <dc:type
           rdf:resource="http://purl.org/dc/dcmitype/StillImage" />
      </cc:Work>
    </rdf:RDF>
  </metadata>
  <sodipodi:namedview
     pagecolor="#ffffff"
     bordercolor="#666666"
     borderopacity="1"
     objecttolerance="10"
     gridtolerance="10"
     guidetolerance="10"
     inkscape:pageopacity="0"
     inkscape:pageshadow="2"
     inkscape:window-width="976"
     inkscape:window-height="620"
     id="namedview11"
     showgrid="false"
     inkscape:zoom="13.227273"
     inkscape:cx="-2.1546392"
     inkscape:cy="12.587628"
     inkscape:window-x="0"
     inkscape:window-y="24"
     inkscape:window-maximized="0"
     inkscape:current-layer="svg3215" />
  <defs
     id="defs3217">
    <linearGradient
       id="linearGradient3587-6-5">
      <stop
         id="stop3589-9-2"
         style="stop-color:#000000;stop-opacity:1"
         offset="0" />
      <stop
         id="stop3591-7-4"
         style="stop-color:#363636;stop-opacity:1"
         offset="1" />
    </linearGradient>
    <linearGradient
       x1="10.378836"
       y1="0.80000001"
       x2="10.378836"
       y2="17.604439"
       id="linearGradient3196"
       xlink:href="#linearGradient3587-6-5"
       gradientUnits="userSpaceOnUse"
       gradientTransform="matrix(1.25,0,0,1.25,-0.9994247,-0.9999999)" />
  </defs>
  <g
     id="layer1"
     transform="translate(-2,0)">
    <path
       d="m 5.0005754,4.9997925 3,-3 0,12.5427045 c 0,-1.782405 1.7175964,-3.542705 3.4999996,-3.542705 1.782404,0 3.5,1.760595 3.5,3.543001 0,1.782402 -1.717596,3.457 -3.5,3.457 -1.7824035,0 -3.4999996,-1.674598 -3.4999996,-3.457 M 10.984253,8.0201842 c 2.797705,-0.2229328 5.422554,1.3749379 6.509345,3.9625488 1.086792,2.587612 0.390069,5.580536 -1.727799,7.422135 -2.117867,1.841598 -5.178546,2.115934 -7.5901591,0.680326 -2.4116126,-1.43561 -3.6294809,-4.256924 -3.020184,-6.99656"
       id="path3198"
       style="opacity:0.6;fill:none;stroke:#ffffff;stroke-width:2;stroke-linecap:round;stroke-linejoin:round;stroke-miterlimit:10;stroke-opacity:1;stroke-dasharray:none"
       inkscape:connector-curvature="0" />
    <path
       d="m 5.0005754,4.0000001 3,-3 0,12.5427049 C 8.0005754,11.7603 9.7181718,10 11.500575,10 c 1.782404,0 3.5,1.760595 3.5,3.543 0,1.782402 -1.717596,3.457 -3.5,3.457 C 9.7181715,17 8.0005754,15.325402 8.0005754,13.543 M 10.984253,7.0203919 c 2.797705,-0.2229329 5.422554,1.3749375 6.509345,3.9625481 1.086792,2.587613 0.390069,5.580536 -1.727799,7.422135 -2.117867,1.841599 -5.178546,2.115935 -7.5901591,0.680326 -2.4116126,-1.43561 -3.6294809,-4.256923 -3.020184,-6.99656"
       id="path5"
       style="opacity:0.7;fill:none;stroke:url(#linearGradient3196);stroke-width:2;stroke-linecap:round;stroke-linejoin:round;stroke-miterlimit:10;stroke-opacity:1;stroke-dasharray:none"
       inkscape:connector-curvature="0" />
  </g>
</svg>

<?xml version="1.0" encoding="UTF-8" standalone="no"?>
<!-- Created with Inkscape (http://www.inkscape.org/) -->
<svg
   xmlns:svg="http://www.w3.org/2000/svg"
   xmlns="http://www.w3.org/2000/svg"
   xmlns:xlink="http://www.w3.org/1999/xlink"
   version="1.0"
   width="22"
   height="22"
   id="svg3215">
  <defs
     id="defs3217">
    <linearGradient
       id="linearGradient3587-6-5">
      <stop
         id="stop3589-9-2"
         style="stop-color:#000000;stop-opacity:1"
         offset="0" />
      <stop
         id="stop3591-7-4"
         style="stop-color:#363636;stop-opacity:1"
         offset="1" />
    </linearGradient>
    <linearGradient
       x1="10.378836"
       y1="0.80000001"
       x2="10.378836"
       y2="17.604439"
       id="linearGradient3196"
       xlink:href="#linearGradient3587-6-5"
       gradientUnits="userSpaceOnUse"
       gradientTransform="matrix(1.25,0,0,1.25,-0.9994247,-0.9999999)" />
  </defs>
  <g
     id="layer1">
    <path
       d="M 5.0005754,4.9997925 L 8.0005754,1.9997925 L 8.0005754,14.542497 C 8.0005754,12.760092 9.7181718,10.999792 11.500575,10.999792 C 13.282979,10.999792 15.000575,12.760387 15.000575,14.542793 C 15.000575,16.325195 13.282979,17.999793 11.500575,17.999793 C 9.7181715,17.999793 8.0005754,16.325195 8.0005754,14.542793 M 10.984253,8.0201842 C 13.781958,7.7972514 16.406807,9.3951221 17.493598,11.982733 C 18.58039,14.570345 17.883667,17.563269 15.765799,19.404868 C 13.647932,21.246466 10.587253,21.520802 8.1756399,20.085194 C 5.7640273,18.649584 4.546159,15.82827 5.1554559,13.088634"
       id="path3198"
       style="opacity:0.6;fill:none;stroke:#ffffff;stroke-width:2;stroke-linecap:round;stroke-linejoin:round;stroke-miterlimit:10;stroke-dasharray:none;stroke-opacity:1" />
    <path
       d="M 5.0005754,4.0000001 L 8.0005754,1.0000001 L 8.0005754,13.542705 C 8.0005754,11.7603 9.7181718,10 11.500575,10 C 13.282979,10 15.000575,11.760595 15.000575,13.543 C 15.000575,15.325402 13.282979,17 11.500575,17 C 9.7181715,17 8.0005754,15.325402 8.0005754,13.543 M 10.984253,7.0203919 C 13.781958,6.797459 16.406807,8.3953294 17.493598,10.98294 C 18.58039,13.570553 17.883667,16.563476 15.765799,18.405075 C 13.647932,20.246674 10.587253,20.52101 8.1756399,19.085401 C 5.7640273,17.649791 4.546159,14.828478 5.1554559,12.088841"
       id="path5"
       style="opacity:0.7;fill:none;stroke:url(#linearGradient3196);stroke-width:2;stroke-linecap:round;stroke-linejoin:round;stroke-miterlimit:10;stroke-dasharray:none;stroke-opacity:1" />
  </g>
</svg>
